icon_installer/data/icons/scalable/actions/show-vpn-caps-disabled-symbolic.svg

<?xml version="1.0" encoding="UTF-8"?>
<svg height="16px" viewBox="0 0 16 16" width="16px" xmlns="http://www.w3.org/2000/svg">
    <g fill="#222222">
        <path d="m 0 5 l 2 7 h 2 l 1.097656 -3.84375 l -1.554687 -1.554688 l -0.542969 1.898438 l -0.976562 -3.417969 l -0.082032 -0.082031 z m 6 0 v 1.9375 l 3.003906 3.007812 c 1.160156 -0.242187 1.992188 -1.261718 1.996094 -2.445312 c 0 -1.378906 -1.121094 -2.5 -2.5 -2.5 z m 5 2.5 v 4.4375 l 0.0625 0.0625 h 1.9375 v -3 l 1 3 h 2 v -7 h -2 v 3 l -1 -3 h -2 z m -3 -0.75 h 0.5 c 0.414062 0 0.75 0.335938 0.75 0.75 s -0.335938 0.75 -0.75 0.75 h -0.5 z m -2 2.308594 v 2.941406 h 2 v -0.941406 z m 0 0"/>
        <path d="m 0.472656 1.527344 l 14 14 l 1.058594 -1.058594 l -14 -14 z m 0 0"/>
    </g>
</svg>

<svg xmlns="http://www.w3.org/2000/svg" width="16" height="16"><g fill="#222"><path d="m0 5 2 7h2l1.098-3.844-1.555-1.554L3 8.5l-.977-3.418L1.941 5zm6 0v1.938l3.004 3.007A2.507 2.507 0 0 0 11 7.5C11 6.121 9.879 5 8.5 5zm5 2.5v4.438l.063.062H13V9l1 3h2V5h-2v3l-1-3h-2zm-3-.75h.5a.75.75 0 0 1 0 1.5H8zM6 9.059V12h2v-.941zm0 0"/><path d="m.473 1.527 14 14 1.058-1.058-14-14zm0 0"/></g></svg>
